X:1
T:Title
%%score { ( 1 4 ) | ( 2 3 5 ) }
L:1/8
Q:1/4=114
M:4/4
K:D
V:1 treble nm="Grand Piano"
V:4 treble 
V:2 bass 
V:3 bass 
V:5 bass 
V:1
 [DF]2 [EG]2 [FA]2 [DF]2 | [Fd]2 [DGB]2 [DFA]2 [DF]2 | [CE][CE][CE][DF] [EG]4 | %3
w: J.~H.~Hall * * *|||
 [DGB]2 [DFA]2 [DFA]4 | [A,DF]2 [A,EG]2 [DFA]2 [A,DF]2 | [Fd]2 [DGB]2 [DFA]2 [DF]2 | %6
w: |||
 [CE][DF][EG][FA] [GB]2 [Gc]2 | [Fd]6 z2 | FF[DF]G [FA]3 [FA] | [GB]-[DGB][FA]-[DFA] z2 C2 | %10
w: ||||
 [CE]2 z2 [EG]4 | [GB]2 [FA]2 [FA]4 | FF[DF]G [FA]3 [FA] | [GB]-[DGB][FA]-[DFA] z2 C2 | %14
w: ||||
 [CE][DF][EG][FA] [GB]2 [Gc]2 | d2- [Gd-]2 [Fd]4 |] %16
w: ||
V:2
 [D,A,]2 [D,A,]2 [D,D]2 [D,A,]2 | [D,A,]2 D,2 z2 A,2 | [A,,A,][A,,A,][A,,A,][A,,A,] A,2 C2 | %3
 D,2 D,2 D,4 | D,2 D,2 D,2 D,2 | [D,A,]2 D,2 z2 A,2 | %6
 [A,,A,][A,,A,][A,,A,][A,,A,] [A,,A,]2 [A,,A,]2 | [D,A,]6 z2 | DD z E D,3 D, | D,D,D,D, [CE]2 A,2 | %10
 A,,A,,A,,A,, z2 C2 | [D,D][D,D][D,D][D,D] [D,D]4 | DD z E D,3 D, | D,D,D,D, [CE]2 A,2 | %14
 [A,,A,]2 [A,,A,]2 [A,,A,][A,,A,][A,,A,][A,,A,] | [D,A,]2 [D,B,]2 [D,A,]4 |] %16
V:3
 x8 | z4 D,4 | z4 A,,4 | x8 | x8 | z4 D,4 | x8 | x8 | [D,A,-]2 A,2 z4 | z4 E,4 | z4 A,,4 | x8 | %12
 [D,A,-]2 A,2 z4 | z4 E,4 | x8 | x8 |] %16
V:4
 x8 | x8 | x8 | x8 | x8 | x8 | x8 | x8 | z4 D4 | .D2 .D2 G4 | A,A,[A,CE][A,DF] A,2 z2 | x8 | %12
 z4 D4 | .D2 .D2 G4 | x8 | F2 z2 z4 |] %16
V:5
 x8 | x8 | x8 | x8 | x8 | x8 | x8 | x8 | z2 D,2 z4 | x8 | x8 | x8 | z2 D,2 z4 | x8 | x8 | x8 |] %16

